X:1
T:Title
%%score { 1 | ( 2 3 ) }
L:1/8
M:4/4
K:A
V:1 treble nm="Grand Piano"
V:2 bass 
V:3 bass 
V:1
 z4 z2[Q:1/4=100] [CE]2 | [CE]2 [A,C]D [A,CE]2 [CEA]2 | [CEA]6 Bc | d3 c B2 A2 | B6 E2 | %5
 E2 [CA]2 [EA]2 B2 | c3 d c2 [Ec]2 | [EB]2 [Ge]2 [Ge]2 [A^d]2 | [Ge]6 [Ge]2 | %9
 [Gd]2 [Ac][GB] [Ac]2 B2 | A6 E2 | A2 A2 d2 c2 | B6 B2 | c2 [Ae]2 [EA]2 [CE]2 | [DF]4 [Fd]4 | %15
 c3 B A2 G2 | [CA]6 z2 | [Ec]4 [CE]4 | [DF]2 [FA]2 [FA]4 | G4 A4 | d2 c2 B4 | %21
 c2 [Ae]2 [EA]2 [CE]2 | [DF]2 [FA]2 [FA]2 [Fd]2 | c3 B A2 G2 |[M:3/4] [CA]6 |] %25
V:2
 z4 z2 [A,,A,]2 | [A,,A,]2 z B, A,,2 A,,2 | z4 z2[K:treble] E2 | %3
 [B,EG]3 [A,EA] [G,B,E]2[K:bass] [F,B,^D]2 | [E,G,E]6 [E,G,D]2 | [A,C]2 [A,,E,]2 [C,A,]2 [E,G,E]2 | %6
 E4 z4[K:bass] | [B,,G,]2 [B,,B,]2 [B,,B,]2 [B,,B,]2 | [E,B,]6 [E,B,]2 | %9
 [E,B,]2 [E,E]2 [E,E]2 [E,DE]2 | [A,CE]6 [A,C]2 | [A,CE]2 [A,CE]2 [G,B,E]2 [A,E]2 | %12
 [E,G,E]6 [E,G,E]2 | [A,E]2 [E,C]2 [C,A,]2 [A,,A,]2 | [D,A,]4 [D,A,]4 | %15
 [E,A,E]3 [E,DE] [E,CE]2 [E,B,D]2 | [A,,A,]6 z2 | [A,,A,]4 [A,,A,]4 | [D,A,]2 [D,D]2 [D,D]4 | %19
 [E,DE]4 [A,CE]4 | [G,B,E]2 [A,E]2 [E,G,E]4 | [A,E]2 [E,C]2 [C,A,]2 [A,,A,]2 | %22
 [D,A,]2 [D,D]2 [D,D]2 [D,A,]2 | [E,A,E]3 [E,DE] [E,CE]2 [E,B,D]2 |[M:3/4] [A,,A,]6 |] %25
V:3
 x8 | z2 [A,,E,]2 z4 | A,,6[K:treble] [DG][CA] | x6[K:bass] x2 | x8 | x8 | %6
 A,3- [A,-F] [A,E]2[K:bass] [A,,A,]2 | x8 | x8 | x8 | x8 | x8 | x8 | x8 | x8 | x8 | x8 | x8 | x8 | %19
 x8 | x8 | x8 | x8 | x8 |[M:3/4] x6 |] %25

